public/svg/icon/hpb.svg

<svg xmlns="http://www.w3.org/2000/svg" xmlns:xlink="http://www.w3.org/1999/xlink" width="32" height="32" viewBox="0 0 32 32"><defs><linearGradient id="hpb-c" x1="50%" x2="50%" y1="0%" y2="100%"><stop offset="0%" stop-color="#FFF" stop-opacity=".5"/><stop offset="100%" stop-opacity=".5"/></linearGradient><circle id="hpb-b" cx="16" cy="15" r="15"/><filter id="hpb-a" width="111.7%" height="111.7%" x="-5.8%" y="-4.2%" filterUnits="objectBoundingBox"><feOffset dy=".5" in="SourceAlpha" result="shadowOffsetOuter1"/><feGaussianBlur in="shadowOffsetOuter1" result="shadowBlurOuter1" stdDeviation=".5"/><feComposite in="shadowBlurOuter1" in2="SourceAlpha" operator="out" result="shadowBlurOuter1"/><feColorMatrix in="shadowBlurOuter1" values="0 0 0 0 0 0 0 0 0 0 0 0 0 0 0 0 0 0 0.199473505 0"/></filter><filter id="hpb-d" width="117.5%" height="118.4%" x="-8.8%" y="-6.6%" filterUnits="objectBoundingBox"><feOffset dy=".5" in="SourceAlpha" result="shadowOffsetOuter1"/><feGaussianBlur in="shadowOffsetOuter1" result="shadowBlurOuter1" stdDeviation=".5"/><feColorMatrix in="shadowBlurOuter1" result="shadowMatrixOuter1" values="0 0 0 0 0 0 0 0 0 0 0 0 0 0 0 0 0 0 0.204257246 0"/><feMerge><feMergeNode in="shadowMatrixOuter1"/><feMergeNode in="SourceGraphic"/></feMerge></filter></defs><g fill="none" fill-rule="evenodd"><use fill="#000" filter="url(#hpb-a)" xlink:href="#hpb-b"/><use fill="#1591CA" xlink:href="#hpb-b"/><use fill="url(#hpb-c)" style="mix-blend-mode:soft-light" xlink:href="#hpb-b"/><circle cx="16" cy="15" r="14.5" stroke="#000" stroke-opacity=".097"/><g fill="#FFF" fill-rule="nonzero" filter="url(#hpb-d)" transform="translate(6 5.5)"><path d="M10.572449,8.772 C10.572449,8.772 11.8989796,5.822 9.29693878,2.972 C9.29693878,2.972 7.81734694,1.072 4.75612245,1.222 L5.36836735,0.982 C5.47008368,0.941844893 5.57651986,0.914298319 5.68520408,0.9 L6.28673469,0.8215 L10.5214286,0.1715 C10.5214286,0.1715 12.0178571,-0.122 13.152551,0.2015 C13.4763217,0.294981079 13.7696373,0.469553066 14.0035714,0.708 C14.6290816,1.342 15.8862245,3.019 15.0622449,5.6715 C15.0622449,5.6715 14.2459184,8.6215 11.1846939,9.3215 C11.1846939,9.322 10.4193878,9.522 10.572449,8.772 Z M10.3831633,10.416 C10.3831633,10.416 12.2959184,13.0385 16.125,12.3 C16.125,12.3 18.547449,12.021 19.9760204,9.3635 L19.8739796,10.0015 C19.8570315,10.1079248 19.8266986,10.2118827 19.7836735,10.311 L19.5459184,10.858 L17.9581633,14.758 C17.9581633,14.758 17.452551,16.169 16.5897959,16.961 C16.3435056,17.1857021 16.0417786,17.3437148 15.7142857,17.4195 C14.8392857,17.6235 12.7260204,17.8285 10.8163265,15.782 C10.8163265,15.782 8.64285714,13.5895 9.58877551,10.652 C9.58826531,10.65 9.80306122,9.905 10.3831633,10.416 Z M8.99795918,9.4695 C8.99795918,9.4695 5.72755102,9.8125 4.50255102,13.4435 C4.50255102,13.4435 3.55867347,15.6475 5.21683673,18.174 L4.7,17.774 C4.61383333,17.7073926 4.53652959,17.6304591 4.46989796,17.545 L4.1005102,17.073 L1.41530612,13.8 C1.41530612,13.8 0.408163265,12.6735 0.131122449,11.55 C0.0514638514,11.2278525 0.0590262531,10.8909035 0.153061224,10.5725 C0.402040816,9.725 1.25918367,7.8225 4.01632653,7.1995 C4.01632653,7.1995 7.03265306,6.423 9.17755102,8.6755 C9.17959184,8.6755 9.7377551,9.226 8.99795918,9.4695 Z"/><path d="M11.1061224,9.659 C11.1061224,9.659 14.3668367,9.2345 15.4969388,5.574 C15.4969388,5.574 16.3826531,3.347 14.6591837,0.863 L15.1867347,1.25 C15.2744453,1.3146328 15.3537739,1.38952039 15.4229592,1.473 L15.8040816,1.9355 L18.5739796,5.1415 C18.5739796,5.1415 19.6076531,6.2415 19.9163265,7.3595 C20.002814,7.67914344 20.002814,8.01535656 19.9163265,8.335 C19.6892857,9.188 18.8816327,11.113 16.1408163,11.8035 C16.1408163,11.8035 13.1454082,12.6535 10.9428571,10.457 C10.9454082,10.4575 10.3729592,9.921 11.1061224,9.659 Z M9.46785714,10.2625 C9.46785714,10.2625 8.06683673,13.179 10.5954082,16.092 C10.5954082,16.092 12.0239796,18.0275 15.0903061,17.9525 L14.472449,18.177 C14.3694774,18.2141865 14.2621951,18.2387072 14.1530612,18.25 L13.55,18.314 L9.3,18.86 C9.3,18.86 7.79693878,19.1165 6.67040816,18.7655 C6.34927369,18.6639486 6.06058497,18.4823454 5.83265306,18.2385 C5.22346939,17.5885 4.00969388,15.8825 4.9005102,13.251 C4.9005102,13.251 5.79183673,10.3215 8.86989796,9.697 C8.86989796,9.7 9.64285714,9.5165 9.46785714,10.2625 Z M9.57653061,8.726 C9.57653061,8.726 7.625,6.1305 3.80816327,6.926 C3.80816327,6.926 1.39030612,7.2385 -2.84217094e-14,9.9155 L0.0918367347,9.275 C0.107520083,9.16865182 0.136301476,9.06455912 0.17755102,8.965 L0.407142857,8.415 L1.93877551,4.491 C1.93877551,4.491 2.42346939,3.073 3.2744898,2.2695 C3.51837418,2.04141428 3.81873064,1.87959108 4.14591837,1.8 C5.01836735,1.5835 7.12806122,1.35 9.06632653,3.369 C9.06632653,3.369 11.2714286,5.5305 10.3678571,8.481 C10.3678571,8.479 10.1642857,9.229 9.57653061,8.726 Z" opacity=".5"/></g></g></svg>

<svg xmlns="http://www.w3.org/2000/svg" xmlns:xlink="http://www.w3.org/1999/xlink" width="32" height="32" viewBox="0 0 32 32"><defs><filter id="a" width="111.7%" height="111.7%" x="-5.8%" y="-4.2%" filterUnits="objectBoundingBox"><feOffset dy=".5" in="SourceAlpha" result="shadowOffsetOuter1"/><feGaussianBlur in="shadowOffsetOuter1" result="shadowBlurOuter1" stdDeviation=".5"/><feComposite in="shadowBlurOuter1" in2="SourceAlpha" operator="out" result="shadowBlurOuter1"/><feColorMatrix in="shadowBlurOuter1" values="0 0 0 0 0 0 0 0 0 0 0 0 0 0 0 0 0 0 0.199473505 0"/></filter><filter id="d" width="117.5%" height="118.4%" x="-8.8%" y="-6.6%" filterUnits="objectBoundingBox"><feOffset dy=".5" in="SourceAlpha" result="shadowOffsetOuter1"/><feGaussianBlur in="shadowOffsetOuter1" result="shadowBlurOuter1" stdDeviation=".5"/><feColorMatrix in="shadowBlurOuter1" result="shadowMatrixOuter1" values="0 0 0 0 0 0 0 0 0 0 0 0 0 0 0 0 0 0 0.204257246 0"/><feMerge><feMergeNode in="shadowMatrixOuter1"/><feMergeNode in="SourceGraphic"/></feMerge></filter><linearGradient id="c" x1="50%" x2="50%" y1="0%" y2="100%"><stop offset="0%" stop-color="#FFF" stop-opacity=".5"/><stop offset="100%" stop-opacity=".5"/></linearGradient><circle id="b" cx="16" cy="15" r="15"/></defs><g fill="none" fill-rule="evenodd"><use fill="#000" filter="url(#a)" xlink:href="#b"/><use fill="#1591CA" xlink:href="#b"/><use fill="url(#c)" style="mix-blend-mode:soft-light" xlink:href="#b"/><circle cx="16" cy="15" r="14.5" stroke="#000" stroke-opacity=".097"/><g fill="#FFF" fill-rule="nonzero" filter="url(#d)" transform="translate(6 5.5)"><path d="M10.572 8.772s1.327-2.95-1.275-5.8c0 0-1.48-1.9-4.54-1.75l.611-.24c.102-.04.209-.068.317-.082l.602-.079 4.234-.65s1.497-.293 2.632.03c.323.094.617.269.85.507.626.634 1.883 2.311 1.06 4.963 0 0-.817 2.95-3.878 3.65 0 .001-.766.201-.613-.549zm-.189 1.644s1.913 2.623 5.742 1.884c0 0 2.422-.279 3.851-2.937l-.102.639c-.017.106-.047.21-.09.309l-.238.547-1.588 3.9s-.505 1.411-1.368 2.203a1.952 1.952 0 01-.876.459c-.875.203-2.988.408-4.898-1.638 0 0-2.173-2.193-1.227-5.13 0-.002.214-.747.794-.236zm-1.385-.947s-3.27.344-4.495 3.975c0 0-.944 2.204.714 4.73l-.517-.4a1.3 1.3 0 01-.23-.229l-.37-.472L1.416 13.8S.408 12.673.131 11.55c-.08-.322-.072-.66.022-.978.249-.847 1.106-2.75 3.863-3.372 0 0 3.017-.777 5.162 1.475.002 0 .56.551-.18.794z"/><path d="M11.106 9.659s3.26-.425 4.39-4.085c0 0 .887-2.227-.837-4.711l.528.387c.087.065.167.14.236.223l.381.462 2.77 3.206s1.034 1.1 1.342 2.218c.087.32.087.656 0 .976-.227.853-1.034 2.778-3.775 3.468 0 0-2.996.85-5.198-1.346.002 0-.57-.536.163-.798zm-1.638.603s-1.401 2.917 1.127 5.83c0 0 1.429 1.936 4.495 1.86l-.618.225a1.35 1.35 0 01-.319.073l-.603.064-4.25.546s-1.503.256-2.63-.095a1.952 1.952 0 01-.837-.527c-.61-.65-1.823-2.355-.932-4.987 0 0 .89-2.93 3.969-3.554 0 .003.773-.18.598.566zm.109-1.536s-1.952-2.596-5.769-1.8c0 0-2.418.313-3.808 2.99l.092-.641a1.3 1.3 0 01.086-.31l.23-.55 1.53-3.924s.485-1.418 1.336-2.221a1.95 1.95 0 01.872-.47c.872-.217 2.982-.45 4.92 1.569 0 0 2.205 2.161 1.302 5.112 0-.002-.204.748-.791.245z" opacity=".5"/></g></g></svg>
